!!!OTL: "Die Vielliebchen ( Valentinchen ) " ICH WEISS JETT
!!!ARE: Europa, Mitteleuropa, Deutschland, Niederrhein
!!!SCT: Z1277
!!!YEM: Copyright 1995, estate of Helmut Schaffrath.
**kern
*ICvox
*Ivox
*M3/4
*k[b-e-]
*g:
{4d
=1
2b-
4a
=2
4g
8r
8b-
8dd
8a
=3
2b-
4a
=4
4g
4r}
{4d
=5
4d
4g
4a
=6
4.b-
8a
4g
=7
4a
4g
4f#
=8
2g}
{4g
=9
4fn
4b-
4cc
=10
4.dd
8cc
4b-
=11
4cc
4dd
4cc
=12
2b-}
{4a
=13
2g
4a
=14
4.b-
8a
4g
=15
4a
4g
4f#
=16
2g}
==
!!!AGN: Natur und Welt, Brauchtums - Lied
!!!ONB: ESAC (Essen Associative Code) Database: ZUCCAL
!!!AMT: simple triple
!!!AIN: vox
!!!EED: Helmut Schaffrath
!!!EEV: 1.0
*-
